X:1
T: The Jacobite
C:
R:Strathspey
Q: 128
K:A
M:4/4
L:1/16
|:ec3 a3g f3e c3A|cB3 B3A cB3 B2cd|ec3 a3g f3e c3A|FA3 A3B cA3 A2c2|
ec3 a3g f3e c3A|cB3 B3A cB3 B2cd|ec3 a3g f3e c3A|FA3 A3B cA3 A2c2|
d3e f3g a3e c3A|d3c B3A GB3 B3f|ec3 a3g f3e c3A|EA3 A3B eA3 A2c2|
d3e f3g a3e c3A|d3c B3A GB3 B3f|ec3 a3g f3e c3A|EA3 A3B eA3 A4:|
